wilib/img/svg/btnBlack.svg

<svg xmlns="http://www.w3.org/2000/svg" xmlns:xlink="http://www.w3.org/1999/xlink" preserveAspectRatio="none" width="58" height="58" viewBox="0 0 58 58"><defs><linearGradient id="a" gradientUnits="userSpaceOnUse" x1="31.75" y1="3.612" x2="31.75" y2="52.388"><stop offset="0%" stop-opacity=".102"/><stop offset="100%" stop-color="#FFF" stop-opacity=".102"/></linearGradient><linearGradient id="b" gradientUnits="userSpaceOnUse" x1="28.8" y1="22.65" x2="28.8" y2="5.55"><stop offset="0%" stop-opacity=".502"/><stop offset="100%" stop-color="#FFF" stop-opacity=".502"/></linearGradient><path fill="#E2E2E2" d="M58.75 29.4q0-12.2-8.6-20.8Q41.55 0 29.35 0 17.2 0 8.6 8.6T0 29.4q0 12.15 8.6 20.8 8.6 8.6 20.75 8.6 12.2 0 20.8-8.6 8.6-8.65 8.6-20.8z" id="c"/><path fill="#FFF" d="M48.5 48.25q8.2-8.2 8.2-19.8 0-11.6-8.2-19.8Q40.3.45 28.7.45q-11.6 0-19.8 8.2-8.2 8.2-8.2 19.8 0 11.6 8.2 19.8 8.2 8.2 19.8 8.2 11.6 0 19.8-8.2z" id="d"/><path d="M53.7 28.45q0-10.35-7.3-17.65-7.35-7.35-17.7-7.35T11.05 10.8Q3.7 18.1 3.7 28.45q0 10.35 7.35 17.7 7.3 7.3 17.65 7.3 10.35 0 17.7-7.3 7.3-7.35 7.3-17.7z" id="e"/><path fill="#FFF" d="M26.9 43.4l11.95-11.9q2.1-2.15 0-4.25L26.9 15.3q-.85-.8-1.5-.55-.6.25-.6 1.45v26.35q0 1.25.6 1.5.65.2 1.5-.65z" id="g"/><path fill="url(#a)" d="M51.85 28.25q0-9.55-6.75-16.3-6.7-6.7-16.25-6.7t-16.3 6.7q-6.7 6.75-6.7 16.3t6.7 16.25q6.75 6.75 16.3 6.75T45.1 44.5q6.75-6.7 6.75-16.25z" id="h"/><path fill="url(#b)" d="M40.65 19.75q4.85-2.35 4.85-5.65 0-3.35-4.85-5.65-4.9-2.35-11.8-2.35-6.95 0-11.8 2.35-4.9 2.3-4.9 5.65 0 3.3 4.9 5.65 4.9 2.35 11.8 2.35t11.8-2.35z" id="i"/><path id="f" stroke="#999" stroke-miterlimit="3" fill="none" d="M46.4 46.15q-7.35 7.3-17.7 7.3t-17.65-7.3Q3.7 38.8 3.7 28.45t7.35-17.65q7.3-7.35 17.65-7.35 10.35 0 17.7 7.35 7.3 7.3 7.3 17.65 0 10.35-7.3 17.7z"/><path id="j" stroke="#666" stroke-miterlimit="3" fill="none" d="M28.85 6.1q6.9 0 11.8 2.35 4.85 2.3 4.85 5.65 0 3.3-4.85 5.65-4.9 2.35-11.8 2.35t-11.8-2.35q-4.9-2.35-4.9-5.65 0-3.35 4.9-5.65Q21.9 6.1 28.85 6.1z"/></defs><use xlink:href="#c"/><use xlink:href="#d"/><use xlink:href="#e"/><use xlink:href="#f"/><use xlink:href="#g"/><use xlink:href="#h"/><use xlink:href="#i"/><use xlink:href="#j"/></svg>

<svg xmlns="http://www.w3.org/2000/svg" version="1.1" xmlns:xlink="http://www.w3.org/1999/xlink" preserveAspectRatio="none" x="0px" y="0px" width="58px" height="58px" viewBox="0 0 58 58">
<defs>
<linearGradient id="Gradient_1" gradientUnits="userSpaceOnUse" x1="31.75" y1="3.612499999999997" x2="31.75" y2="52.3875" spreadMethod="pad">
<stop  offset="0%" stop-color="#000000" stop-opacity="0.10196078431372549"/>

<stop  offset="100%" stop-color="#FFFFFF" stop-opacity="0.10196078431372549"/>
</linearGradient>

<linearGradient id="Gradient_2" gradientUnits="userSpaceOnUse" x1="28.8" y1="22.65" x2="28.8" y2="5.549999999999999" spreadMethod="pad">
<stop  offset="0%" stop-color="#000000" stop-opacity="0.5019607843137255"/>

<stop  offset="100%" stop-color="#FFFFFF" stop-opacity="0.5019607843137255"/>
</linearGradient>

<g id="Layer0_0_MEMBER_0_MEMBER_0_FILL">
<path fill="#E2E2E2" stroke="none" d="
M 58.75 29.4
Q 58.75 17.2 50.15 8.6 41.55 0 29.35 0 17.2 0 8.6 8.6 0 17.2 0 29.4 0 41.55 8.6 50.2 17.2 58.8 29.35 58.8 41.55 58.8 50.15 50.2 58.75 41.55 58.75 29.4 Z"/>
</g>

<g id="Layer0_0_MEMBER_0_MEMBER_1_FILL">
<path fill="#FFFFFF" stroke="none" d="
M 48.5 48.25
Q 56.7 40.05 56.7 28.45 56.7 16.85 48.5 8.65 40.3 0.45 28.7 0.45 17.1 0.45 8.9 8.65 0.7 16.85 0.7 28.45 0.7 40.05 8.9 48.25 17.1 56.45 28.7 56.45 40.3 56.45 48.5 48.25 Z"/>
</g>

<g id="Layer0_0_MEMBER_0_MEMBER_2_FILL">
<path fill="#000000" stroke="none" d="
M 53.7 28.45
Q 53.7 18.1 46.4 10.8 39.05 3.45 28.7 3.45 18.35 3.45 11.05 10.8 3.7 18.1 3.7 28.45 3.7 38.8 11.05 46.15 18.35 53.45 28.7 53.45 39.05 53.45 46.4 46.15 53.7 38.8 53.7 28.45 Z"/>
</g>

<g id="Layer0_0_MEMBER_0_MEMBER_4_FILL">
<path fill="#FFFFFF" stroke="none" d="
M 26.9 43.4
L 38.85 31.5
Q 40.95 29.35 38.85 27.25
L 26.9 15.3
Q 26.05 14.5 25.4 14.75 24.8 15 24.8 16.2
L 24.8 42.55
Q 24.8 43.8 25.4 44.05 26.05 44.25 26.9 43.4 Z"/>
</g>

<g id="Layer0_0_MEMBER_1_MEMBER_0_FILL">
<path fill="url(#Gradient_1)" stroke="none" d="
M 51.85 28.25
Q 51.85 18.7 45.1 11.95 38.4 5.25 28.85 5.25 19.3 5.25 12.55 11.95 5.85 18.7 5.85 28.25 5.85 37.8 12.55 44.5 19.3 51.25 28.85 51.25 38.4 51.25 45.1 44.5 51.85 37.8 51.85 28.25 Z"/>
</g>

<g id="Layer0_0_MEMBER_1_MEMBER_1_MEMBER_0_FILL">
<path fill="url(#Gradient_2)" stroke="none" d="
M 40.65 19.75
Q 45.5 17.4 45.5 14.1 45.5 10.75 40.65 8.45 35.75 6.1 28.85 6.1 21.9 6.1 17.05 8.45 12.15 10.75 12.15 14.1 12.15 17.4 17.05 19.75 21.95 22.1 28.85 22.1 35.75 22.1 40.65 19.75 Z"/>
</g>

<path id="Layer0_0_MEMBER_0_MEMBER_3_1_STROKES" stroke="#999999" stroke-width="1" stroke-linejoin="miter" stroke-linecap="butt" stroke-miterlimit="3" fill="none" d="
M 46.4 46.15
Q 39.05 53.45 28.7 53.45 18.35 53.45 11.05 46.15 3.7 38.8 3.7 28.45 3.7 18.1 11.05 10.8 18.35 3.45 28.7 3.45 39.05 3.45 46.4 10.8 53.7 18.1 53.7 28.45 53.7 38.8 46.4 46.15 Z"/>

<path id="Layer0_0_MEMBER_1_MEMBER_1_MEMBER_1_1_STROKES" stroke="#666666" stroke-width="1" stroke-linejoin="miter" stroke-linecap="butt" stroke-miterlimit="3" fill="none" d="
M 28.85 6.1
Q 35.75 6.1 40.65 8.45 45.5 10.75 45.5 14.1 45.5 17.4 40.65 19.75 35.75 22.1 28.85 22.1 21.95 22.1 17.05 19.75 12.15 17.4 12.15 14.1 12.15 10.75 17.05 8.45 21.9 6.1 28.85 6.1 Z"/>
</defs>

<g transform="matrix( 1, 0, 0, 1, 0,0) ">
<use xlink:href="#Layer0_0_MEMBER_0_MEMBER_0_FILL"/>
</g>

<g transform="matrix( 1, 0, 0, 1, 0,0) ">
<use xlink:href="#Layer0_0_MEMBER_0_MEMBER_1_FILL"/>
</g>

<g transform="matrix( 1, 0, 0, 1, 0,0) ">
<use xlink:href="#Layer0_0_MEMBER_0_MEMBER_2_FILL"/>
</g>

<g transform="matrix( 1, 0, 0, 1, 0,0) ">
<use xlink:href="#Layer0_0_MEMBER_0_MEMBER_3_1_STROKES"/>
</g>

<g transform="matrix( 1, 0, 0, 1, 0,0) ">
<use xlink:href="#Layer0_0_MEMBER_0_MEMBER_4_FILL"/>
</g>

<g transform="matrix( 1, 0, 0, 1, 0,0) ">
<use xlink:href="#Layer0_0_MEMBER_1_MEMBER_0_FILL"/>
</g>

<g transform="matrix( 1, 0, 0, 1, 0,0) ">
<use xlink:href="#Layer0_0_MEMBER_1_MEMBER_1_MEMBER_0_FILL"/>
</g>

<g transform="matrix( 1, 0, 0, 1, 0,0) ">
<use xlink:href="#Layer0_0_MEMBER_1_MEMBER_1_MEMBER_1_1_STROKES"/>
</g>
</svg>
